icons/svg/beats.svg

﻿<?xml version="1.0" encoding="utf-8"?>
<!DOCTYPE svg PUBLIC "-//W3C//DTD SVG 1.1//EN" "http://www.w3.org/Graphics/SVG/1.1/DTD/svg11.dtd">
<svg xmlns="http://www.w3.org/2000/svg" xmlns:xlink="http://www.w3.org/1999/xlink" version="1.1" baseProfile="full" width="24" height="24" viewBox="0 0 24.00 24.00" enable-background="new 0 0 24.00 24.00" xml:space="preserve">
	<path fill="#000000" fill-opacity="1" stroke-linejoin="round" d="M 7,12C 7,14.7614 9.23857,17 12,17C 14.7614,17 17,14.7614 17,12C 17,9.23858 14.7614,7 12,7C 10.8744,7 9.83566,7.37195 9,7.99963L 9,2.4578C 9.94704,2.16035 10.9548,2 12,2C 17.5228,2 22,6.47716 22,12C 22,17.5228 17.5228,22 12,22C 6.47715,22 2,17.5228 2,12C 2,8.29859 4.01099,5.06687 7,3.33782L 7,12 Z M 14.5,12C 14.5,12.3651 14.3044,12.6844 14.0123,12.859L 12.1097,14.2927C 11.9409,14.4227 11.7295,14.5 11.5,14.5C 10.9477,14.5 10.5,14.0523 10.5,13.5L 10.5,10.5C 10.5,9.94772 10.9477,9.5 11.5,9.5C 11.7296,9.5 11.941,9.57735 12.1098,9.70741L 14.0123,11.141C 14.3044,11.3156 14.5,11.6349 14.5,12 Z "/>
</svg>

<svg xmlns="http://www.w3.org/2000/svg" version="1.1" baseProfile="full" width="24" height="24" viewBox="0 0 24.00 24.00" xml:space="preserve"><path fill="#000" fill-opacity="1" stroke-linejoin="round" d="M7 12c0 2.76 2.24 5 5 5s5-2.24 5-5-2.24-5-5-5c-1.126 0-2.164.372-3 1V2.458C9.947 2.16 10.955 2 12 2c5.523 0 10 4.477 10 10s-4.477 10-10 10S2 17.523 2 12c0-3.7 2.01-6.933 5-8.662V12zm7.5 0c0 .365-.196.684-.488.86l-1.902 1.433c-.17.13-.38.207-.61.207-.552 0-1-.448-1-1v-3c0-.552.448-1 1-1 .23 0 .44.077.61.207l1.902 1.434c.292.176.488.495.488.86z"/></svg>
